svg/email_arrow_left_outline.svg

<svg xmlns="http://www.w3.org/2000/svg" viewBox="0 0 24 24"><path d="M13 19c0-.34.04-.67.09-1H4V8l8 5 8-5v5.09c.72.12 1.39.37 2 .72V6c0-1.1-.9-2-2-2H4c-1.1 0-2 .9-2 2v12c0 1.1.9 2 2 2h9.09c-.05-.33-.09-.66-.09-1m7-13-8 5-8-5zm-2 10v2h4v2h-4v2l-3-3z"/></svg>

<svg xmlns="http://www.w3.org/2000/svg" id="mdi-email-arrow-left-outline" viewBox="0 0 24 24"><path d="M13 19C13 18.66 13.04 18.33 13.09 18H4V8L12 13L20 8V13.09C20.72 13.21 21.39 13.46 22 13.81V6C22 4.9 21.1 4 20 4H4C2.9 4 2 4.9 2 6V18C2 19.1 2.9 20 4 20H13.09C13.04 19.67 13 19.34 13 19M20 6L12 11L4 6H20M18 16V18H22V20H18V22L15 19L18 16Z" /></svg>
